picto/car-hire-right-fr.svg

<svg class="color-immutable" width="24" height="24" viewBox="0 0 24 24" fill="none" xmlns="http://www.w3.org/2000/svg"><path d="M0 22.5V1.5C0 0.675 0.675 0 1.5 0H22.5C23.325 0 24 0.675 24 1.5V22.5C24 23.325 23.325 24 22.5 24H1.5C0.675 24 0 23.325 0 22.5Z" fill="#2D327D"/><path d="M20.655 16.714L16.268 16.35L13.654 13.736C13.443 13.525 13.157 13.406 12.859 13.406H6.376C6.078 13.406 5.792 13.525 5.581 13.736L3.33 15.986C3.12 16.197 3 16.484 3 16.781V19.425C3 19.632 3.169 19.8 3.376 19.8H3.75V19.369C3.75 18.127 4.759 17.118 6 17.118C7.242 17.118 8.25 18.126 8.25 19.369V19.8H15.712V19.369C15.712 18.127 16.72 17.118 17.962 17.118C19.204 17.118 20.211 18.126 20.211 19.369V19.8H20.623C20.831 19.8 20.999 19.632 20.999 19.425V17.087C21 16.892 20.85 16.73 20.655 16.714ZM9.373 16.032C9.373 16.239 9.205 16.406 8.998 16.406H4.514C4.389 16.406 4.289 16.306 4.289 16.181C4.289 16.122 4.313 16.064 4.354 16.022L6.148 14.228C6.219 14.158 6.314 14.118 6.414 14.118H8.998C9.205 14.118 9.373 14.287 9.373 14.494V16.032ZM14.721 16.406H10.462C10.255 16.406 10.088 16.239 10.088 16.033L10.085 14.496C10.085 14.495 10.085 14.495 10.085 14.495C10.085 14.288 10.253 14.119 10.46 14.119H12.821C12.921 14.119 13.016 14.159 13.087 14.229L14.881 16.023C14.922 16.065 14.947 16.122 14.947 16.182C14.947 16.306 14.846 16.406 14.721 16.406Z" fill="white"/><path fill-rule="evenodd" clip-rule="evenodd" d="M6.005 20.222C5.488 20.222 5.068 19.802 5.068 19.284C5.068 18.766 5.488 18.346 6.005 18.346C6.523 18.346 6.942 18.766 6.942 19.284C6.942 19.802 6.522 20.222 6.005 20.222ZM6.005 17.578C5.063 17.578 4.298 18.342 4.298 19.284C4.298 20.226 5.063 20.991 6.005 20.991C6.946 20.991 7.712 20.226 7.712 19.284C7.711 18.342 6.946 17.578 6.005 17.578Z" fill="white"/><path fill-rule="evenodd" clip-rule="evenodd" d="M17.966 20.222C17.448 20.222 17.028 19.802 17.028 19.284C17.028 18.766 17.448 18.346 17.966 18.346C18.484 18.346 18.902 18.766 18.902 19.284C18.902 19.802 18.483 20.222 17.966 20.222ZM17.965 17.578C17.023 17.578 16.258 18.342 16.258 19.284C16.258 20.226 17.023 20.991 17.965 20.991C18.907 20.991 19.672 20.226 19.672 19.284C19.671 18.342 18.907 17.578 17.965 17.578Z" fill="white"/><path d="M4.59 4.833V5.248H3V3H3.491V4.833H4.59Z" fill="white"/><path d="M5.622 3.52299C5.866 3.52299 6.065 3.604 6.22 3.766C6.373 3.926 6.449 4.139 6.449 4.406C6.449 4.682 6.367 4.90199 6.204 5.06599C6.053 5.21799 5.854 5.295 5.609 5.295C5.348 5.295 5.139 5.20999 4.985 5.03999C4.836 4.87699 4.763 4.66699 4.763 4.40899C4.763 4.15499 4.835 3.948 4.978 3.789C5.137 3.612 5.352 3.52299 5.622 3.52299ZM5.599 3.871C5.481 3.871 5.387 3.91899 5.318 4.01399C5.247 4.10999 5.212 4.24199 5.212 4.40899C5.212 4.58199 5.247 4.715 5.317 4.807C5.389 4.9 5.487 4.947 5.611 4.947C5.727 4.947 5.819 4.90399 5.886 4.81899C5.963 4.72499 6.001 4.588 6.001 4.40799C6.001 4.24 5.967 4.10899 5.899 4.01599C5.829 3.91899 5.729 3.871 5.599 3.871Z" fill="white"/><path d="M8.299 4.604C8.277 4.771 8.221 4.911 8.131 5.023C7.985 5.204 7.78 5.295 7.514 5.295C7.241 5.295 7.029 5.202 6.877 5.015C6.749 4.856 6.685 4.66 6.685 4.426C6.685 4.137 6.771 3.909 6.942 3.742C7.092 3.596 7.285 3.524 7.522 3.524C7.74 3.524 7.918 3.581 8.054 3.694C8.19 3.807 8.268 3.962 8.288 4.159H7.85C7.833 4.069 7.797 4 7.74 3.951C7.684 3.901 7.613 3.877 7.527 3.877C7.403 3.877 7.307 3.924 7.239 4.018C7.17 4.111 7.136 4.243 7.136 4.412C7.136 4.562 7.163 4.682 7.218 4.773C7.285 4.885 7.385 4.941 7.518 4.941C7.715 4.941 7.83 4.829 7.864 4.604H8.299Z" fill="white"/><path d="M10.087 5.249H9.63199C9.61299 5.183 9.60299 5.12699 9.60299 5.08099C9.46399 5.22399 9.28399 5.295 9.06299 5.295C8.89099 5.295 8.75599 5.255 8.65999 5.175C8.54899 5.083 8.49399 4.95399 8.49399 4.789C8.49399 4.57899 8.58899 4.433 8.77899 4.352C8.85599 4.319 8.99699 4.289 9.20399 4.261C9.37999 4.238 9.49099 4.21499 9.53499 4.19299C9.57799 4.17099 9.59999 4.12599 9.59999 4.05999C9.59999 3.91299 9.50299 3.83999 9.30799 3.83999C9.20399 3.83999 9.12899 3.85799 9.08099 3.89499C9.03299 3.93199 9.00199 3.99599 8.98599 4.08699H8.56499C8.57799 3.90099 8.64799 3.75999 8.77599 3.66499C8.90299 3.56999 9.08399 3.52299 9.31799 3.52299C9.57699 3.52299 9.76899 3.57599 9.89299 3.68099C9.94999 3.72999 9.98899 3.78299 10.008 3.83899C10.027 3.89499 10.036 3.98499 10.036 4.10699C10.036 4.13299 10.034 4.245 10.031 4.445C10.029 4.647 10.028 4.763 10.028 4.793C10.028 4.915 10.032 5.00399 10.039 5.06099C10.046 5.11799 10.063 5.181 10.087 5.249ZM9.59699 4.438C9.53899 4.474 9.43499 4.50199 9.28299 4.52299C9.17599 4.53899 9.09999 4.55999 9.05199 4.58599C8.98499 4.62199 8.95199 4.683 8.95199 4.769C8.95199 4.839 8.97399 4.893 9.01799 4.932C9.06299 4.971 9.12399 4.98999 9.20299 4.98999C9.33399 4.98999 9.43999 4.944 9.52099 4.852C9.54999 4.82 9.56999 4.78699 9.58099 4.75299C9.59199 4.71899 9.59699 4.673 9.59699 4.617V4.438Z" fill="white"/><path d="M11.286 3.566V3.881H10.952V4.67C10.952 4.764 10.961 4.824 10.978 4.85C11.004 4.887 11.061 4.905 11.15 4.905C11.185 4.905 11.23 4.902 11.285 4.897V5.254C11.185 5.265 11.092 5.271 11.008 5.271C10.881 5.271 10.784 5.257 10.717 5.228C10.613 5.182 10.549 5.098 10.523 4.976C10.512 4.924 10.506 4.816 10.506 4.651V3.881H10.234V3.566H10.506V3.172H10.951V3.566H11.286Z" fill="white"/><path d="M11.989 3V3.401H11.543V3H11.989ZM11.989 3.572V5.249H11.543V3.572H11.989Z" fill="white"/><path d="M13.15 3.52299C13.394 3.52299 13.593 3.604 13.748 3.766C13.901 3.926 13.977 4.139 13.977 4.406C13.977 4.682 13.895 4.90199 13.732 5.06599C13.579 5.21899 13.38 5.295 13.135 5.295C12.874 5.295 12.665 5.20999 12.511 5.03999C12.363 4.878 12.29 4.66799 12.29 4.40899C12.29 4.15499 12.362 3.948 12.505 3.789C12.664 3.612 12.879 3.52299 13.15 3.52299ZM13.127 3.871C13.009 3.871 12.915 3.91899 12.846 4.01399C12.775 4.10999 12.74 4.24199 12.74 4.40899C12.74 4.58199 12.775 4.715 12.845 4.807C12.917 4.9 13.015 4.947 13.139 4.947C13.255 4.947 13.347 4.90399 13.414 4.81899C13.491 4.72499 13.529 4.588 13.529 4.40799C13.529 4.24 13.495 4.10899 13.427 4.01599C13.356 3.91899 13.256 3.871 13.127 3.871Z" fill="white"/><path d="M14.693 3.574V3.809C14.745 3.737 14.794 3.684 14.839 3.651C14.95 3.565 15.083 3.522 15.239 3.522C15.376 3.522 15.493 3.557 15.588 3.627C15.664 3.682 15.717 3.752 15.747 3.837C15.777 3.922 15.792 4.041 15.792 4.195V5.25H15.347V4.287C15.347 4.179 15.338 4.1 15.319 4.05C15.302 4.006 15.272 3.971 15.23 3.945C15.182 3.917 15.127 3.903 15.065 3.903C14.997 3.903 14.936 3.919 14.88 3.952C14.825 3.985 14.784 4.029 14.757 4.086C14.727 4.15 14.712 4.249 14.712 4.383V5.247H14.266V3.574H14.693Z" fill="white"/></svg>

<svg class="color-immutable" width="24" height="24" viewBox="0 0 24 24" fill="none" xmlns="http://www.w3.org/2000/svg"><g clip-path="url(#a)"><path d="M0 22.5v-21C0 .675.675 0 1.5 0h21c.825 0 1.5.675 1.5 1.5v21c0 .825-.675 1.5-1.5 1.5h-21C.675 24 0 23.325 0 22.5Z" fill="#2D327D"/><path d="m20.655 16.714-4.387-.364-2.614-2.614a1.125 1.125 0 0 0-.795-.33H6.376c-.298 0-.584.119-.795.33l-2.251 2.25a1.13 1.13 0 0 0-.33.795v2.644c0 .207.169.375.376.375h.374v-.431a2.251 2.251 0 0 1 4.5 0v.431h7.462v-.431a2.25 2.25 0 1 1 4.499 0v.431h.412a.375.375 0 0 0 .376-.375v-2.338a.373.373 0 0 0-.344-.373Zm-11.282-.682a.374.374 0 0 1-.375.374H4.514a.224.224 0 0 1-.225-.225.23.23 0 0 1 .065-.159l1.794-1.794a.379.379 0 0 1 .266-.11h2.584c.207 0 .375.169.375.376v1.538Zm5.348.374h-4.259a.373.373 0 0 1-.374-.373l-.003-1.537v-.001c0-.207.168-.376.375-.376h2.361c.1 0 .195.04.266.11l1.794 1.794a.225.225 0 0 1-.16.383Z" fill="#fff"/><path fill-rule="evenodd" clip-rule="evenodd" d="M6.005 20.222a.938.938 0 1 1 .002-1.876.938.938 0 0 1-.002 1.876Zm0-2.644a1.707 1.707 0 1 0 0 3.414 1.707 1.707 0 0 0 0-3.414ZM17.966 20.222a.938.938 0 1 1 0-1.876.938.938 0 0 1 0 1.876Zm-.001-2.644a1.707 1.707 0 1 0 0 3.414 1.707 1.707 0 0 0 0-3.414Z" fill="#fff"/><path d="M4.59 4.833v.415H3V3h.491v1.833H4.59ZM5.622 3.523a.79.79 0 0 1 .598.243c.153.16.229.373.229.64 0 .276-.082.496-.245.66a.803.803 0 0 1-.595.229c-.261 0-.47-.085-.624-.255-.149-.163-.222-.373-.222-.631 0-.254.072-.461.215-.62.159-.177.374-.266.644-.266Zm-.023.348a.33.33 0 0 0-.281.143.652.652 0 0 0-.106.395c0 .173.035.306.105.398.072.093.17.14.294.14a.332.332 0 0 0 .275-.128c.077-.094.115-.231.115-.411 0-.168-.034-.299-.102-.392a.347.347 0 0 0-.3-.145ZM8.299 4.604a.827.827 0 0 1-.168.419c-.146.181-.351.272-.617.272-.273 0-.485-.093-.637-.28a.909.909 0 0 1-.192-.589c0-.289.086-.517.257-.684a.795.795 0 0 1 .58-.218c.218 0 .396.057.532.17a.665.665 0 0 1 .234.465H7.85a.348.348 0 0 0-.11-.208.307.307 0 0 0-.213-.074.335.335 0 0 0-.288.141c-.069.093-.103.225-.103.394 0 .15.027.27.082.361a.328.328 0 0 0 .3.168c.197 0 .312-.112.346-.337h.435ZM10.087 5.249h-.455a.629.629 0 0 1-.029-.168.72.72 0 0 1-.54.214c-.172 0-.307-.04-.403-.12a.474.474 0 0 1-.166-.386c0-.21.095-.356.285-.437.077-.033.218-.063.425-.091a1.37 1.37 0 0 0 .331-.068c.043-.022.065-.067.065-.133 0-.147-.097-.22-.292-.22-.104 0-.179.018-.227.055-.048.037-.079.101-.095.192h-.421a.543.543 0 0 1 .211-.422c.127-.095.308-.142.542-.142.259 0 .451.053.575.158a.37.37 0 0 1 .115.158.915.915 0 0 1 .028.268l-.005.338-.003.348c0 .122.004.211.011.268.007.057.024.12.048.188Zm-.49-.811a.875.875 0 0 1-.314.085.742.742 0 0 0-.231.063c-.067.036-.1.097-.1.183 0 .07.022.124.066.163a.272.272 0 0 0 .185.058.403.403 0 0 0 .318-.138.274.274 0 0 0 .06-.099.46.46 0 0 0 .016-.136v-.179ZM11.286 3.566v.315h-.334v.789c0 .094.009.154.026.18.026.037.083.055.172.055.035 0 .08-.003.135-.008v.357c-.1.011-.193.017-.277.017a.762.762 0 0 1-.291-.043.332.332 0 0 1-.194-.252 1.954 1.954 0 0 1-.017-.325v-.77h-.272v-.315h.272v-.394h.445v.394h.335ZM11.989 3v.401h-.446V3h.446Zm0 .572v1.677h-.446V3.572h.446ZM13.15 3.523a.79.79 0 0 1 .598.243c.153.16.229.373.229.64 0 .276-.082.496-.245.66a.807.807 0 0 1-.597.229c-.261 0-.47-.085-.624-.255-.148-.162-.221-.372-.221-.631 0-.254.072-.461.215-.62.159-.177.374-.266.645-.266Zm-.023.348a.33.33 0 0 0-.281.143.652.652 0 0 0-.106.395c0 .173.035.306.105.398.072.093.17.14.294.14a.332.332 0 0 0 .275-.128c.077-.094.115-.231.115-.411 0-.168-.034-.299-.102-.392a.35.35 0 0 0-.3-.145ZM14.693 3.574v.235a.633.633 0 0 1 .546-.287c.137 0 .254.035.349.105a.432.432 0 0 1 .159.21c.03.085.045.204.045.358V5.25h-.445v-.963a.722.722 0 0 0-.028-.237.211.211 0 0 0-.089-.105.321.321 0 0 0-.165-.042.356.356 0 0 0-.185.049.306.306 0 0 0-.123.134.738.738 0 0 0-.045.297v.864h-.446V3.574h.427Z" fill="#fff"/></g><defs><clipPath id="a"><path fill="#fff" d="M0 0h24v24H0z"/></clipPath></defs></svg>
